images/svg/stars-3.svg

<svg width="167" height="27" viewBox="0 0 167 27" fill="none" xmlns="http://www.w3.org/2000/svg">
<path d="M12.5037 3.85958C12.8036 2.9393 14.1055 2.9393 14.4053 3.85958L16.1564 9.23398C16.2906 9.64561 16.6743 9.92418 17.1072 9.92418H22.768C23.7374 9.92418 24.1397 11.1652 23.3547 11.734L18.7798 15.0486C18.4284 15.3033 18.2813 15.7555 18.4158 16.1682L20.1643 21.5349C20.4644 22.4557 19.4111 23.2227 18.6268 22.6544L14.0413 19.3321C13.6912 19.0784 13.2179 19.0784 12.8678 19.3321L8.28228 22.6544C7.49802 23.2227 6.44473 22.4557 6.74475 21.5348L8.49333 16.1682C8.62778 15.7555 8.4807 15.3033 8.12924 15.0486L3.55437 11.734C2.76936 11.1652 3.17169 9.92418 4.14108 9.92418H9.80184C10.2348 9.92418 10.6185 9.64561 10.7526 9.23398L12.5037 3.85958Z" fill="#070707"/>
<path d="M47.6009 3.85958C47.9008 2.9393 49.2027 2.9393 49.5025 3.85958L51.2536 9.23398C51.3877 9.64561 51.7715 9.92418 52.2044 9.92418H57.8652C58.8346 9.92418 59.2369 11.1652 58.4519 11.734L53.877 15.0486C53.5256 15.3033 53.3785 15.7555 53.5129 16.1682L55.2615 21.5349C55.5615 22.4557 54.5082 23.2227 53.724 22.6544L49.1384 19.3321C48.7884 19.0784 48.315 19.0784 47.965 19.3321L43.3794 22.6544C42.5952 23.2227 41.5419 22.4557 41.8419 21.5348L43.5905 16.1682C43.7249 15.7555 43.5779 15.3033 43.2264 15.0486L38.6515 11.734C37.8665 11.1652 38.2689 9.92418 39.2383 9.92418H44.899C45.3319 9.92418 45.7157 9.64561 45.8498 9.23398L47.6009 3.85958Z" fill="#070707"/>
<path d="M82.6981 3.85958C82.9979 2.9393 84.2998 2.9393 84.5997 3.85958L86.3508 9.23398C86.4849 9.64561 86.8687 9.92418 87.3016 9.92418H92.9623C93.9317 9.92418 94.3341 11.1652 93.5491 11.734L88.9742 15.0486C88.6227 15.3033 88.4756 15.7555 88.6101 16.1682L90.3587 21.5349C90.6587 22.4557 89.6054 23.2227 88.8211 22.6544L84.2356 19.3321C83.8856 19.0784 83.4122 19.0784 83.0622 19.3321L78.4766 22.6544C77.6924 23.2227 76.6391 22.4557 76.9391 21.5348L78.6877 16.1682C78.8221 15.7555 78.675 15.3033 78.3236 15.0486L73.7487 11.734C72.9637 11.1652 73.366 9.92418 74.3354 9.92418H79.9962C80.4291 9.92418 80.8129 9.64561 80.947 9.23398L82.6981 3.85958Z" fill="#070707"/>
<path d="M117.795 3.85958C118.095 2.9393 119.397 2.9393 119.697 3.85958L121.448 9.23398C121.582 9.64561 121.966 9.92418 122.399 9.92418H128.06C129.029 9.92418 129.431 11.1652 128.646 11.734L124.071 15.0486C123.72 15.3033 123.573 15.7555 123.707 16.1682L125.456 21.5349C125.756 22.4557 124.703 23.2227 123.918 22.6544L119.333 19.3321C118.983 19.0784 118.509 19.0784 118.159 19.3321L113.574 22.6544C112.79 23.2227 111.736 22.4557 112.036 21.5348L113.785 16.1682C113.919 15.7555 113.772 15.3033 113.421 15.0486L108.846 11.734C108.061 11.1652 108.463 9.92418 109.433 9.92418H115.093C115.526 9.92418 115.91 9.64561 116.044 9.23398L117.795 3.85958Z" fill="#E5E5E5"/>
<path d="M152.892 3.85958C153.192 2.9393 154.494 2.9393 154.794 3.85958L156.545 9.23398C156.679 9.64561 157.063 9.92418 157.496 9.92418H163.157C164.126 9.92418 164.528 11.1652 163.743 11.734L159.169 15.0486C158.817 15.3033 158.67 15.7555 158.804 16.1682L160.553 21.5349C160.853 22.4557 159.8 23.2227 159.015 22.6544L154.43 19.3321C154.08 19.0784 153.607 19.0784 153.256 19.3321L148.671 22.6544C147.887 23.2227 146.833 22.4557 147.133 21.5348L148.882 16.1682C149.016 15.7555 148.869 15.3033 148.518 15.0486L143.943 11.734C143.158 11.1652 143.56 9.92418 144.53 9.92418H150.191C150.623 9.92418 151.007 9.64561 151.141 9.23398L152.892 3.85958Z" fill="#E5E5E5"/>
</svg>

<svg xmlns="http://www.w3.org/2000/svg" width="167" height="27" fill="none"><path fill="#070707" d="M12.504 3.86c.3-.92 1.601-.92 1.901 0l1.751 5.374a1 1 0 0 0 .951.69h5.661c.97 0 1.372 1.241.587 1.81l-4.575 3.315a1 1 0 0 0-.364 1.12l1.748 5.366c.3.92-.753 1.688-1.537 1.12l-4.586-3.323a1 1 0 0 0-1.173 0l-4.586 3.322c-.784.569-1.837-.198-1.537-1.12l1.748-5.366a1 1 0 0 0-.364-1.12l-4.575-3.314c-.785-.569-.382-1.81.587-1.81h5.66a1 1 0 0 0 .952-.69l1.75-5.374ZM47.6 3.86c.3-.92 1.603-.92 1.902 0l1.752 5.374a1 1 0 0 0 .95.69h5.661c.97 0 1.372 1.241.587 1.81l-4.575 3.315a1 1 0 0 0-.364 1.12l1.748 5.366c.3.92-.753 1.688-1.537 1.12l-4.586-3.323a1 1 0 0 0-1.173 0l-4.586 3.322c-.784.569-1.837-.198-1.537-1.12l1.748-5.366a1 1 0 0 0-.364-1.12l-4.575-3.314c-.785-.569-.382-1.81.587-1.81H44.9a1 1 0 0 0 .95-.69l1.752-5.374ZM82.698 3.86c.3-.92 1.602-.92 1.902 0l1.75 5.374a1 1 0 0 0 .952.69h5.66c.97 0 1.372 1.241.587 1.81l-4.575 3.315a1 1 0 0 0-.364 1.12l1.749 5.366c.3.92-.754 1.688-1.538 1.12l-4.585-3.323a1 1 0 0 0-1.174 0l-4.585 3.322c-.785.569-1.838-.198-1.538-1.12l1.749-5.366a1 1 0 0 0-.364-1.12l-4.575-3.314c-.785-.569-.383-1.81.586-1.81h5.661a1 1 0 0 0 .951-.69l1.751-5.374Z"/><path fill="#E5E5E5" d="M117.795 3.86c.3-.92 1.602-.92 1.902 0l1.751 5.374a1 1 0 0 0 .951.69h5.661c.969 0 1.371 1.241.586 1.81l-4.575 3.315a1.001 1.001 0 0 0-.364 1.12l1.749 5.366c.3.92-.753 1.688-1.538 1.12l-4.585-3.323a1 1 0 0 0-1.174 0l-4.585 3.322c-.784.569-1.838-.198-1.538-1.12l1.749-5.366a1.001 1.001 0 0 0-.364-1.12l-4.575-3.314c-.785-.569-.383-1.81.587-1.81h5.66a1 1 0 0 0 .951-.69l1.751-5.374ZM152.892 3.86c.3-.92 1.602-.92 1.902 0l1.751 5.374a1 1 0 0 0 .951.69h5.661c.969 0 1.371 1.241.586 1.81l-4.574 3.315a1 1 0 0 0-.365 1.12l1.749 5.366c.3.92-.753 1.688-1.538 1.12l-4.585-3.323a1 1 0 0 0-1.174 0l-4.585 3.322c-.784.569-1.838-.198-1.538-1.12l1.749-5.366a1.001 1.001 0 0 0-.364-1.12l-4.575-3.314c-.785-.569-.383-1.81.587-1.81h5.661a1 1 0 0 0 .95-.69l1.751-5.374Z"/></svg>
